X: 81
T:Smith's Hornpipe. TLY.080
M:C
L:1/8
S:Wm.Tildesley,Swinton,Lancs.1860s.
R:Hornpipe
O:England.
A:Lancashire.
H:1860.
Z:vmp.Taz Tarry.
K:A
(3efg| aece Acec| fdBG A2 Bc| defe dcBA| GABG E2 (3efg|!
 aece Acec| fdBGA2 Bc| defe dcAB| A2A2A2:|!
|:ed| ceAe ceAe| dfBf dfBf | ceAe ceAe| GBEB GBEB|!
 ceAe ceAe| dfBf dfBf| eagf edcB| A2A2A2:|]
